Obsidian/actions/22s/account-types-loan.svg

<svg height="22" width="22" xmlns="http://www.w3.org/2000/svg"><path d="m5.5 2-1.75 2.5-1.75 2.5h2v5h3v-5h2l-1.75-2.5zm5.5 4v1.4003906c-.933494.05304-1.676904.3025149-2.2285156.7480469-.5410033.445533-.8105469 1.0607176-.8105469 1.8457031 0 .7531624.2444579 1.3463254.7324219 1.7812504.4879644.434925 1.2564594.795618 2.3066406 1.082031v3.214844c-.541001-.01061-1.0920773-.07974-1.6542969-.207032-.5622195-.127294-1.0240966-.275585-1.3847656-.445312v1.351562c.339454.159119.7843256.287342 1.3359375.382813.5516116.08486 1.119692.13197 1.703125.142578v1.703125h1.017578v-1.765625c1.007752-.106079 1.788233-.387609 2.339844-.84375.551612-.466748.828125-1.071899.828125-1.814453 0-.530396-.123206-.960217-.367188-1.289063-.233374-.339453-.58208-.620984-1.048828-.84375-.466749-.233374-1.051831-.450793-1.751953-.652343v-3.197266c.424316.03182.839087.1009523 1.242188.2070312.413709.09547.789453.2117064 1.128906.3496094l.429687-1.1777344c-.381885-.1591189-.80474-.2904052-1.271484-.3964843-.456142-.1060803-.967078-.1701903-1.529297-.1914063v-1.3847656zm-.03906 2.625v2.816406c-.636482-.159118-1.0763329-.349498-1.320315-.572265-.2333741-.233374-.3496094-.562011-.3496094-.9863285 0-.3500615.1312865-.636609.3964844-.859375.2758057-.222766.700609-.3560065 1.273438-.3984375zm6.03906 5.375-1 1.5-1 1.5h1v3h2v-3h1l-1-1.5zm-4.982422-.808594c.689514.180334 1.163379.372668 1.417969.574219s.380859.503149.380859.90625c0 .360669-.143273.65725-.429687.890625-.286414.222767-.743275.366036-1.369141.429688z" fill="#bebebe"/></svg>

<svg xmlns="http://www.w3.org/2000/svg" width="22" height="22" version="1.1">
 <defs>
  <style id="current-color-scheme" type="text/css">
   .ColorScheme-Text { color:#bebebe; } .ColorScheme-Highlight { color:#4285f4; }
  </style>
 </defs>
 <path style="fill:currentColor" class="ColorScheme-Text" d="M 5.5,2 3.75,4.5 2,7 h 2 v 5 H 7 V 7 H 9 L 7.25,4.5 Z M 11,6 v 1.4003906 c -0.933494,0.05304 -1.676904,0.3025149 -2.2285156,0.7480469 -0.5410033,0.445533 -0.8105469,1.0607176 -0.8105469,1.8457031 0,0.7531624 0.2444579,1.3463254 0.7324219,1.7812504 C 9.1813238,12.210316 9.9498188,12.571009 11,12.857422 v 3.214844 C 10.458999,16.061656 9.9079227,15.992526 9.3457031,15.865234 8.7834836,15.73794 8.3216065,15.589649 7.9609375,15.419922 v 1.351562 c 0.339454,0.159119 0.7843256,0.287342 1.3359375,0.382813 0.5516116,0.08486 1.119692,0.13197 1.703125,0.142578 V 19 h 1.017578 v -1.765625 c 1.007752,-0.106079 1.788233,-0.387609 2.339844,-0.84375 0.551612,-0.466748 0.828125,-1.071899 0.828125,-1.814453 0,-0.530396 -0.123206,-0.960217 -0.367188,-1.289063 -0.233374,-0.339453 -0.58208,-0.620984 -1.048828,-0.84375 C 13.302782,12.209985 12.7177,11.992566 12.017578,11.791016 V 8.59375 c 0.424316,0.03182 0.839087,0.1009523 1.242188,0.2070312 0.413709,0.09547 0.789453,0.2117064 1.128906,0.3496094 L 14.818359,7.9726562 C 14.436474,7.8135373 14.013619,7.682251 13.546875,7.5761719 13.090733,7.4700916 12.579797,7.4059816 12.017578,7.3847656 V 6 Z m -0.03906,2.625 v 2.816406 C 10.324458,11.282288 9.8846071,11.091908 9.640625,10.869141 9.4072509,10.635767 9.2910156,10.30713 9.2910156,9.8828125 9.2910156,9.532751 9.4223021,9.2462035 9.6875,9.0234375 9.9633057,8.8006715 10.388109,8.667431 10.960938,8.625 Z M 17,14 16,15.5 15,17 h 1 v 3 h 2 v -3 h 1 l -1,-1.5 z m -4.982422,-0.808594 c 0.689514,0.180334 1.163379,0.372668 1.417969,0.574219 0.25459,0.201551 0.380859,0.503149 0.380859,0.90625 0,0.360669 -0.143273,0.65725 -0.429687,0.890625 -0.286414,0.222767 -0.743275,0.366036 -1.369141,0.429688 z"/>
</svg>
